X: 34702
T: Road To Garrison, The
R: reel
M: 4/4
K: Dmajor
|:A3B ADFA|BFAF EGFE|DA,~A,2 DFAF|GBAG FD~D2|
A3B ADFA|BFAF EGFE|DB,~B,2 A,2 dB|AFEG FD~D2:|
|:d3f af~f2|afbf afef|~d2fd Adfa|bfaf ~e3 z|
fa~a2 afdf|gfeg fedB|ABde fdAF|GFEG FD~D2:|

